X:0781
M:C|
L:1/8
Q:1/2=104
K:D
                           [2 FDAF dABG|FAdg fdd||
g|Tf>ede fgaf | gfed  cAeg|  Tfede fgaf|ecdB Addg|
   fdfg  fgaf |Tg>fed cAeg|   fdgb afge|fdec dDD|]

